X:1
T:Rise Up and Hasten
T:James McGrahanan, 1881
T:Rise Up and Hasten
T:Public Domain
T:Public Domain
T:Public Domain
C:James McGrahanan, 1881
Z:Public Domain
%%score ( 1 2 ) ( 3 4 )
L:1/8
M:2/4
K:D
V:1 treble 
V:2 treble 
V:3 bass 
V:4 bass 
V:1
 D2 [DF][FA] | D2 [DF][FA] | ([EG]>[DF]) [EG]>[FA] | [DF]3 D | (DD) [DF][FA] | D2 [DF][FA] | %6
w: 1.~Rise up, and|en! my soul,|a- * long! And|speed on|jour- * ney with|with song; Home,|
w: 2.~Why should we|ger when Heaven|be- * fore! While|earth’s fast|ced- * ing, and|no more; Plea-|
w: 3.~Loved ones in|sus, they’ve passed|be- * fore, Now|rest- ing|glo- * ry, they|no more; Toils|
w: 4.~No con- dem-|tion! how blessèd|the * word, And|no sep-|ra- * tion! for-|the Lord; He|
 ([FA]>[EG]) [CE]>C | D4 D2 [DF][FA] | D2 [DF][FA] | ([EG]>[DF]) [EG]>[FA] | [DF]3 D | %11
w: is * near- ing,|coming in- to view,|more of toil-|and * then~to earth|a- dieu.|
w: and * trea- sures|once here we knew,|can they charm|with * such~a goal|in view.|
w: are * end- ed,|nothing now but joy,|es, as- cend-|their * ever glad|em- ploy.|
w: be * with us|loved~us long be- fore,|sus, our Je-|is * ours~for ev-|er- more.|
 (DD) [DF][FA] | D2 [DF][FA] | ([FA]>[EG]) [CE]>C | D4 ||"^Refrain" [DB]2 [DB]2 | [Gd]3 [GB] | %17
w: ||||||
w: then, * come, and|joy- ful song!|child- * ren of|wild-|ness, Our|time can-|
w: ||||||
w: ||||||
 [GB]>[FA] [FA]>[^E^G] | [FA]3 [FA] | [FA][EG] [EG][EG] | [EG]>[EG] [EG][EG] | %21
w: ||||
w: not be long. Home,|home, home,|Oh, why should we|de- lay? The morn|
w: ||||
w: ||||
 [EG][DF] [DF]>[D^E] | [DF]4 | [DB]2 [DB]2 | [Gd]3 [GB] | [GB]>[FA] [FA]>[^E^G] | [FA]3 [FA] | %27
w: ||||||
w: of of Heav’n is|dawn-|ing, We’re|near the|break of day. *||
w: ||||||
w: ||||||
 [Gc]>[Gc] [Gc][Gc] | [Gc]2 [Gc][Gc] | [Fd]>[Fd] [Gd][Gd] | [Fd]4 |] %31
w: ||||
w: ||||
w: ||||
w: ||||
V:2
 D2 x2 | D2 x2 | x4 | x3 D | DD x2 | D2 x2 | x7/2 C/ | D4 D2 x2 | D2 x2 | x4 | x3 D | DD x2 | %12
w: hast-|haste||thy|hope and|home|’tis|A little|ing,||||
w: lin-|lies||re-|soon~will be|sures|which|No more|us||Come|raise the|
w: Je-|on||in|weary are|all|and|And prais-|ing||||
w: na-|is||a-|ever with|will|who|And Je-|sus,||||
 D2 x2 | x7/2 C/ | D4 || x4 | x4 | x4 | x4 | x4 | x4 | x4 | x4 | x4 | x4 | x4 | x4 | x4 | x4 | x4 | %30
w: ||||||||||||||||||
w: Ye|the|er-||||||||||||||||
w: ||||||||||||||||||
w: ||||||||||||||||||
 x4 |] %31
w: |
w: |
w: |
w: |
V:3
 [D,F,]2 [D,A,][D,D] | [D,F,]2 [D,A,][D,D] | (C>D) [A,,C]>[A,,A,] | [D,A,]3 [D,F,] | %4
 [D,F,][D,F,] [D,A,][D,D] | [D,F,]2 [D,A,][D,D] | (D>A,) [A,,A,]>[A,,G,] | %7
 [D,F,]4 [D,F,]2 [D,A,][D,D] | [D,F,]2 [D,A,][D,D] | (C>D) [A,,C]>[A,,A,] | [D,A,]3 [D,F,] | %11
 [D,F,][D,F,] [D,A,][D,D] | [D,F,]2 [D,A,][D,D] | (D>A,) [A,,A,]>[A,,G,] | [D,F,]4 || G,2 G,2 | %16
 [G,B,]3 [G,D] | [D,D]>[D,D] [D,D]>[D,D] | [D,D]3 [D,D] | [A,,D][A,,D] [A,,D][A,,D] | %20
 [A,,D]>[A,,D] [A,,D][A,,D] | [D,A,][D,A,] [D,A,]>[D,A,] | [D,A,]4 | G,2 G,2 | [G,B,]3 [G,D] | %25
 [D,D]>[D,D] [D,D]>[D,D] | [D,D]3 [D,D] | [A,,E]>[A,,E] [A,,E][A,,E] | [A,,E]2 [A,,E][A,,E] | %29
 [D,D]>[D,A,] [D,B,][D,B,] | [D,A,]4 |] %31
V:4
 x4 | x4 | A,,2 x2 | x4 | x4 | x4 | A,,2 x2 | x8 | x4 | A,,2 x2 | x4 | x4 | x4 | A,,2 x2 | x4 || %15
 G,2 G,2 | x4 | x4 | x4 | x4 | x4 | x4 | x4 | G,2 G,2 | x4 | x4 | x4 | x4 | x4 | x4 | x4 |] %31

